X: 167
T: Brudpolska efter Jonas Börjesson
O: Småland
S: Jonas Börjesson
Z:Transcribed to abcby Jon Magnusson 080424
D: Björnlert, Löfberg, Pekkari - Mikaelidansen
N: Jämför [[Musik/247|+]]
N: På [[http://sor.studorg.liu.se/nysida/?page_id=15|Strängar & Rör]]s webbsida står den som "Brudpolska från Virserum" utlärd av [[Personer/Pelle Björnlert]].
R: Polska
M: 3/4
L: 1/16
K: Gm
"Gm" d3d e2e2 d2d2|"Cm" c2Bc "D" d6 c2|"Gm" B2AB c2B2  "Dm"A2G2|"Gm"G2^FG "D" ABAF D4|
"Gm" d3d e2e2 d2d2|"Cm" c2c2 "F" f6 e2|"Dm" d3c "Gm" B2A2 G2B2|"Dm" A2G^F "Gm" G8:|
g3a b3b a2g2|g2^fg "D" a2^f2 d3^f|"Gm" g3a b2a2 b2g2|"D" ^fgaf "Gm" g4 G4|
g3a b3b a2g2|g2^fg "D" a2f2 d3 "Dm"=f|"Cm" e3d c2B2 "D" A2G2|^FGAF "Gm" G8:|(:musicend:)

[[!Ackord]]
(:music:)
